X:1
T:O Love of God, How Strong and True
T:O Love of God, How Strong and True
T:Copyright © 
Z:Copyright ©
%%score ( 1 2 ) ( 3 4 )
L:1/8
M:3/4
K:Ab
V:1 treble nm="SOPRANO ALTO" snm="S. A."
V:2 treble 
V:3 bass nm="TENOR BASS" snm="T. B."
V:4 bass 
V:1
"^1""^2""^3""^4""^5" A2 | (A2 G2) F2 | E4 A2 | (B2 A2) G2 | A4 B2 | (c2 B2) A2 | (G2 A2) B2 | %7
w: O|love * of|God, how|strong _ and|true, e-|ter- * nal|and * yet|
w: O|heav- * enly|love, how|pre- * cious|still in|days * of|wea- * ri-|
w: O|wide- * em-|brac- ing|won- * drous|love! we|read * you|in * the|
w: We|read * you|in the|flowers, _ the|trees, the|fresh- * ness|of * the|
w: We|read * you|best in|him * who|came to|bear * for|us * the|
 (A2 G2) F2 | E4 E2 | (F2 E2) FG | A4 G2 |1 A4 B2 | c4 Bc | (d2 c2) B2 | (A2 G2) A2 | (B2 A2) G2 | %16
w: ev- * er|new, un-|com- * pre- *|hend- ed|and un-|bought, be- *|yond * all|knowl- * edge|and * all|
w: ness * and|ill, in|nights * of *|pain and|help- less-|ness, to *|heal, * to|com- * fort,|and * to|
w: sky * a-|bove; we|read * you *|in the|earth be-|low, in *|seas * that|swell * and|streams _ that|
w: fra- * grant|breeze, the|song * of *|birds up-|on the|wing, the *|joy * of|sum- * mer|and * of|
w: cross * of|shame, sent|by * the *|Fa- ther|from on|high, our *|life * to|live, * our|death * to|
 A4 x2 |] %17
w: thought.|
w: bless.|
w: flow.|
w: spring.|
w: die.|
V:2
 C2 | D4 E2 | E4 E2 | (F2 E2) E2 | E4 E2 | E4 =D2 | E4 E2 | (F2 E2) =D2 | B,4 E2 | (D2 E2) D2 | %10
 E4 ED |1 C4 E2 | E4 E2 | (D2 E2) F2 | (E2 D2) E2 | (F2 E2) E2 | E4 x2 |] %17
V:3
 E,2 | E,4 F,G, | A,4 A,2 | (D2 C2) B,2 | C4 B,2 | (A,2 B,2) B,2 | (B,2 C2) B,2 | (C2 B,2) A,2 | %8
 G,4 A,2 | A,4 D2 | (D2 C2) B,2 |1 %11
"^Copyright 2008 Hymnary.org. You may use this score in personal and corporate worship settings. Commercial use and republication are prohibited without written consent." A,4 G,2 | %12
 A,4"^6 We read your power to bless and save\ne'en in the darkness of the grave;\nstill more in resurrection light\nwe read the fullness of your might.\n\n7 O love of God, our shield and stay\nthrough all the perils of our way;\neternal love, in you we rest,\nforever safe, forever blest." B,2 | %13
 A,4 F,G, | (A,2 B,2) C2 | (D2 C2) B,2 | C4 x2 |] %17
V:4
 A,,2 | B,,4 B,,2 | C,4 C,2 | (D,2 E,2) E,2 | A,4 G,2 | (A,2 G,2) F,2 | (E,2 C,2) G,,2 | %7
 (A,,2 B,,2) B,,2 | E,4 C,2 | (D,2 C,2) B,,2 | A,,4 E,2 |1 F,4 E,2 | A,4 G,2 | (F,2 E,2) D,2 | %14
 (C,2 B,,2) A,,2 | (D,2 E,2) E,2 | A,,4 x2 |] %17

